images/icon-cta-phone.svg

<svg width="40" height="40" viewBox="0 0 40 40" fill="none" xmlns="http://www.w3.org/2000/svg">
<path d="M37.0565 37.1183L38.6865 35.2433C39.5331 34.3967 39.9998 33.27 39.9998 32.0733C39.9998 30.8767 39.5331 29.7484 38.6048 28.8317L34.5282 25.71C32.7815 23.9634 29.9399 23.9617 28.1899 25.705L25.6365 28.195C19.5032 25.6967 14.5066 20.6951 11.8133 14.3568L14.2933 11.8151C16.0416 10.0668 16.0416 7.22179 14.3649 5.55513L11.0999 1.31682C9.40495 -0.37817 6.41164 -0.33817 4.79998 1.27849L2.84332 2.98515C1.00833 4.81014 0 7.28846 0 9.96011C0 22.8751 17.1249 40 30.0399 40C32.7115 40 35.1882 38.9916 37.0565 37.1183ZM9.84828 2.41015L13.1133 6.64846C14.2116 7.74679 14.2116 9.53512 13.1066 10.6418L10.2366 13.5851C10.0066 13.8218 9.93662 14.1718 10.06 14.4784C12.9416 21.6534 18.5816 27.2917 25.5365 29.945C25.8399 30.0617 26.1832 29.99 26.4149 29.765L29.3582 26.895C29.3582 26.895 29.3632 26.89 29.3649 26.8867C30.4298 25.82 32.2048 25.7517 33.4315 26.9584L37.5081 30.08C38.6065 31.1783 38.6065 32.965 37.4698 34.1067L35.8382 35.9817C34.3248 37.4983 32.2648 38.3333 30.0399 38.3333C18.1066 38.3333 1.66666 21.8934 1.66666 9.96011C1.66666 7.73512 2.50165 5.67513 3.97831 4.20014L5.93664 2.49182C6.49663 1.93182 7.23496 1.65849 7.96163 1.65849C8.65996 1.65849 9.34662 1.91182 9.84995 2.41182L9.84828 2.41015Z" fill="white"/>
<path d="M38.3333 17.5C38.3333 17.96 38.7067 18.3334 39.1667 18.3334C39.6267 18.3334 40 17.96 40 17.5C40 7.85008 32.15 0.00012207 22.5001 0.00012207C22.0401 0.00012207 21.6667 0.373454 21.6667 0.833451C21.6667 1.29345 22.0401 1.66678 22.5001 1.66678C31.23 1.66678 38.3333 8.77008 38.3333 17.5Z" fill="#1E84B5"/>
<path d="M22.5001 6.66676C28.4734 6.66676 33.3334 11.5267 33.3334 17.5C33.3334 17.96 32.96 18.3334 32.5 18.3334C32.04 18.3334 31.6667 17.96 31.6667 17.5C31.6667 12.4451 27.5551 8.33342 22.5001 8.33342C22.0401 8.33342 21.6667 7.96008 21.6667 7.50009C21.6667 7.04009 22.0401 6.66676 22.5001 6.66676Z" fill="#1E84B5"/>
</svg>

<svg xmlns="http://www.w3.org/2000/svg" width="40" height="40" fill="none" viewBox="0 0 40 40"><path fill="#fff" d="m37.057 37.118 1.63-1.875A4.46 4.46 0 0 0 40 32.073c0-1.196-.467-2.325-1.395-3.241l-4.077-3.122a4.49 4.49 0 0 0-6.338-.005l-2.553 2.49c-6.134-2.498-11.13-7.5-13.824-13.838l2.48-2.542c1.749-1.748 1.749-4.593.072-6.26L11.1 1.317C9.405-.378 6.412-.338 4.8 1.278L2.843 2.985C1.008 4.81 0 7.288 0 9.96 0 22.875 17.125 40 30.04 40c2.672 0 5.148-1.008 7.017-2.882M9.848 2.41l3.265 4.238a2.826 2.826 0 0 1-.006 3.994l-2.87 2.943a.84.84 0 0 0-.177.893c2.882 7.175 8.522 12.814 15.477 15.467a.83.83 0 0 0 .878-.18l2.943-2.87.007-.008c1.065-1.067 2.84-1.135 4.067.071l4.076 3.122c1.098 1.098 1.098 2.885-.038 4.027l-1.632 1.875c-1.513 1.516-3.573 2.351-5.798 2.351-11.933 0-28.373-16.44-28.373-28.373 0-2.225.835-4.285 2.311-5.76l1.959-1.708a2.86 2.86 0 0 1 2.025-.834c.698 0 1.385.254 1.888.754z"/><path fill="#1e84b5" d="M38.333 17.5a.834.834 0 0 0 1.667 0C40 7.85 32.15 0 22.5 0a.834.834 0 0 0 0 1.667c8.73 0 15.833 7.103 15.833 15.833"/><path fill="#1e84b5" d="M22.5 6.667c5.973 0 10.833 4.86 10.833 10.833a.834.834 0 0 1-1.666 0c0-5.055-4.112-9.167-9.167-9.167a.834.834 0 0 1 0-1.666"/></svg>
